svgs/cco/bill.svg

<svg xmlns="http://www.w3.org/2000/svg" viewBox="0 0 16 16" class="symbol symbol-bill" aria-labelledby="title" role="img"><title id="title">bill icon</title><g data-name="Layer 1"><path d="M11.061 6.217a4.153 4.153 0 0 0-.72-1.243 3.394 3.394 0 0 0-1.054-.832 2.828 2.828 0 0 0-1.3-.3 2.858 2.858 0 0 0-1.3.3 3.37 3.37 0 0 0-1.058.832 3.909 3.909 0 0 0-.705 1.243 4.681 4.681 0 0 0 0 3.056 3.919 3.919 0 0 0 .705 1.244 3.393 3.393 0 0 0 1.058.832 2.91 2.91 0 0 0 2.593 0 3.39 3.39 0 0 0 1.058-.832 4.165 4.165 0 0 0 .72-1.244 4.478 4.478 0 0 0 0-3.056zm-1.084 3.8h-3.8V9.011h1.2V6.4c-.023.041-.571.547-.571.547L6 6.173l1.544-1.3h1.21v4.138h1.222z" role="presentation"/><path d="M15.794 1.917a.67.67 0 0 0-.463-.176H.687a.693.693 0 0 0-.481.176.542.542 0 0 0-.194.418v10.8a.556.556 0 0 0 .194.434.691.691 0 0 0 .481.177h14.644a.668.668 0 0 0 .463-.177.556.556 0 0 0 .195-.434v-10.8a.541.541 0 0 0-.195-.418zm-14.22 8.23a1.8 1.8 0 0 0-.363.038V5.306a1.8 1.8 0 0 0 .363.038 2.475 2.475 0 0 0 2.472-2.4h7.936a2.475 2.475 0 0 0 2.472 2.4 1.794 1.794 0 0 0 .335-.035v4.873a1.794 1.794 0 0 0-.335-.035 2.475 2.475 0 0 0-2.472 2.4H4.046a2.475 2.475 0 0 0-2.472-2.4z" role="presentation"/></g></svg>

<svg xmlns="http://www.w3.org/2000/svg" viewBox="0 0 16 16" aria-labelledby="title" role="img" class="symbol symbol-bill"><title id="title">bill icon</title><g id="Layer_1" data-name="Layer 1"><path d="M11.06,6.22A4.15,4.15,0,0,0,10.34,5a3.39,3.39,0,0,0-1.05-.83A2.83,2.83,0,0,0,8,3.84a2.86,2.86,0,0,0-1.3.3A3.37,3.37,0,0,0,5.63,5a3.91,3.91,0,0,0-.71,1.24,4.68,4.68,0,0,0,0,3.06,3.92,3.92,0,0,0,.71,1.24,3.39,3.39,0,0,0,1.06.83,2.91,2.91,0,0,0,2.59,0,3.39,3.39,0,0,0,1.06-.83,4.16,4.16,0,0,0,.72-1.24,4.48,4.48,0,0,0,0-3.06ZM10,10H6.18V9h1.2V6.4s-.57.55-.57.55L6,6.17l1.54-1.3H8.75V9H10Z" role="presentation"/><path d="M15.79,1.92a.67.67,0,0,0-.46-.18H.69a.69.69,0,0,0-.48.18A.54.54,0,0,0,0,2.34v10.8a.56.56,0,0,0,.19.43.69.69,0,0,0,.48.18H15.33a.67.67,0,0,0,.46-.18.56.56,0,0,0,.19-.43V2.34A.54.54,0,0,0,15.79,1.92ZM1.57,10.15a1.8,1.8,0,0,0-.36,0V5.31a1.8,1.8,0,0,0,.36,0A2.48,2.48,0,0,0,4,2.94H12a2.48,2.48,0,0,0,2.47,2.4,1.79,1.79,0,0,0,.34,0v4.87a1.79,1.79,0,0,0-.34,0A2.48,2.48,0,0,0,12,12.55H4A2.48,2.48,0,0,0,1.57,10.15Z" role="presentation"/></g></svg>
